



d1 $ sometimesBy 0.25 (stut "[4 2 8 16]/4" 2 (1/16))
$ stack [
 n "[e b c d, a e f]/4" #s "superpiano" # gain 1.2 # distort 0.2  # release 0.2
, note "[[e,f][c,d][g,a][c,f]]/4" # s "[birds, supersquare]" # cutoff 700
] # room 24 # crush "[0.3 1 3 5]/3"
