



d1
-- $ every 1 (stut "[4 2 8 16]/4" 2 (1/16))
$ stack [
 sometimes (|+ up "[e7 b7 c7 d7]*2")
  $ n "[e b c d, a e f]/4" #s "[superhoover]" # gain 0  # attack "-2" # release  1
, note "[[e,f][c,d][g,a][c,f]]/4"
|+ up "[e7 b7 c7 d7]*2"
# s "[birds, supersquare]" # cutoff 900 
 -- # squiz "[ 1 3 2 4]/3"
] # room 0.01 # size 0.5 # crush "[0.3 1 3 5]/3"

setcps 0.6
